X: 3
T: The Banshee's Wail Over The Mangle Pit
R: jig
M: 6/8
L: 1/8
K: Ador
B|cBA BcB|AGE GAB|cBA Bed|cAA A2B|
cBA BcB|AGE GAB|cde dBG|ABA A2:|
f|g2e age|dBG Gef|g2e agf|efg a2b|
g2e age|dBG GAB|cBA Bed|cAA A2:|


Tune 131	Setting 12740

